assets/icons/news.svg

<svg width="32" height="32" viewBox="0 0 32 32" fill="none" xmlns="http://www.w3.org/2000/svg">
<rect width="32" height="32" rx="16" fill="#B2F0CF"/>
<path fill-rule="evenodd" clip-rule="evenodd" d="M9.4375 8.5C8.57456 8.5 7.875 9.19955 7.875 10.0625V21C7.875 22.3807 8.99429 23.5 10.375 23.5H22.875C21.4943 23.5 20.375 22.3807 20.375 21V10.0625C20.375 9.19956 19.6754 8.5 18.8125 8.5H9.4375ZM16 14.125C15.6548 14.125 15.375 14.4048 15.375 14.75C15.375 15.0952 15.6548 15.375 16 15.375H17.25C17.5952 15.375 17.875 15.0952 17.875 14.75C17.875 14.4048 17.5952 14.125 17.25 14.125H16ZM15.375 12.25C15.375 11.9048 15.6548 11.625 16 11.625H17.25C17.5952 11.625 17.875 11.9048 17.875 12.25C17.875 12.5952 17.5952 12.875 17.25 12.875H16C15.6548 12.875 15.375 12.5952 15.375 12.25ZM11 16.625C10.6548 16.625 10.375 16.9048 10.375 17.25C10.375 17.5952 10.6548 17.875 11 17.875H17.25C17.5952 17.875 17.875 17.5952 17.875 17.25C17.875 16.9048 17.5952 16.625 17.25 16.625H11ZM10.375 19.75C10.375 19.4048 10.6548 19.125 11 19.125H17.25C17.5952 19.125 17.875 19.4048 17.875 19.75C17.875 20.0952 17.5952 20.375 17.25 20.375H11C10.6548 20.375 10.375 20.0952 10.375 19.75ZM11 11.625C10.6548 11.625 10.375 11.9048 10.375 12.25V14.75C10.375 15.0952 10.6548 15.375 11 15.375H13.5C13.8452 15.375 14.125 15.0952 14.125 14.75V12.25C14.125 11.9048 13.8452 11.625 13.5 11.625H11Z" fill="#00B74B"/>
<path d="M21.625 11.625H23.1875C23.7053 11.625 24.125 12.0447 24.125 12.5625V21C24.125 21.6904 23.5654 22.25 22.875 22.25C22.1846 22.25 21.625 21.6904 21.625 21V11.625Z" fill="#00B74B"/>
</svg>

<svg width="32" height="32" viewBox="0 0 32 32" fill="none" xmlns="http://www.w3.org/2000/svg"><rect width="32" height="32" rx="16" fill="#B2F0CF"/><path fill-rule="evenodd" clip-rule="evenodd" d="M9.44 8.5c-.87 0-1.56.7-1.56 1.56V21a2.5 2.5 0 0 0 2.5 2.5h12.5a2.5 2.5 0 0 1-2.5-2.5V10.06c0-.86-.7-1.56-1.57-1.56zM16 14.13a.62.62 0 1 0 0 1.24h1.25a.62.62 0 1 0 0-1.24zm-.62-1.88c0-.35.27-.62.62-.62h1.25a.62.62 0 1 1 0 1.24H16a.6.6 0 0 1-.62-.62M11 16.63a.62.62 0 1 0 0 1.25h6.25a.62.62 0 1 0 0-1.25zm-.62 3.12c0-.35.27-.62.62-.62h6.25a.62.62 0 1 1 0 1.25H11a.6.6 0 0 1-.62-.63m.62-8.12a.6.6 0 0 0-.62.62v2.5c0 .35.27.63.62.63h2.5c.35 0 .63-.28.63-.63v-2.5a.6.6 0 0 0-.63-.62z" fill="#00B74B"/><path d="M21.63 11.63h1.56c.52 0 .93.41.93.93V21a1.25 1.25 0 1 1-2.5 0z" fill="#00B74B"/></svg>
